X: 9662
T: De Vleegerd
R: polka
M: 2/4
K: Gmajor
D/GA|B>c AB|G>G Bc|d>e cd|B2 GG|
ee/f/ ge|d2 Bd|dc/B/ cd|B>D GA|
B>c AB|G>G Bc|d>e cd|B2 GG|
ee/f/ ge|dB/c/ dd|cA/B/ dA|G3B|
B>B BB|Bc ^cd|e>A AA|A3G|
F>A AA|A^A Bc|d>G GG|G3B|
B>B BB|Bc ^cd|e>A AA|A3d|
d>^c de|d=c BA|G2G2|G2:|

